toy-brick-remove-outline.svg

<svg fill="currentColor" viewBox="0 0 24 24"><path d="M19 6V5c0-1.1-.9-2-2-2h-2c-1.1 0-2 .9-2 2v1h-2V5c0-1.1-.9-2-2-2H7c-1.1 0-2 .9-2 2v1H3v14h11v-2H5V8h14v5h2V6m-3.12 9.46L20 17.59l2.12-2.12 1.42 1.41L21.41 19l2.13 2.12-1.42 1.42L20 20.41l-2.12 2.13-1.42-1.42L18.59 19l-2.12-2.12"/></svg>

<svg  viewBox="0 0 24 24" fill="currentColor"><path  d="M19 6V5C19 3.9 18.1 3 17 3H15C13.9 3 13 3.9 13 5V6H11V5C11 3.9 10.1 3 9 3H7C5.9 3 5 3.9 5 5V6H3V20H14V18H5V8H19V13H21V6M17.88 15.46L20 17.59L22.12 15.47L23.54 16.88L21.41 19L23.54 21.12L22.12 22.54L20 20.41L17.88 22.54L16.46 21.12L18.59 19L16.47 16.88"/></svg>
